!!!OTL: "Trennung" WACH AUF WACH AUF DU JUNGER GESELL
!!!ARE: Europa, Mitteleuropa, Deutschland, Westfalen
!!!SCT: Z1057
!!!YEM: Copyright 1995, estate of Helmut Schaffrath.
**kern
*ICvox
*Ivox
*M4/4
*k[f#c#]
*D:
{8d
8f#
=1
4a
4a
4a
8b
8g
=2
8g
8f#
8f#
8f#
4f#}
{8a
8f#
=3
4.e
8f#
8a
8g
8g
8f#
=4
4f#
4e
4r}
{4a
=5
4b
8a
8a
4b
8cc#
8a
=6
4dd
8cc#
8b
4a
8r}
{8g
=7
8g
8f#
4f#
8a
8g
8f#
8e
=8
4e
4d
4r}
==
!!!AGN: Romanze, Ballade, Abschieds - Lied
!!!ONB: ESAC (Essen Associative Code) Database: ZUCCAL
!!!AMT: simple quadruple
!!!AIN: vox
!!!EED: Helmut Schaffrath
!!!EEV: 1.0
*-
